icons/dices.svg

<svg width="20" height="20" xmlns="http://www.w3.org/2000/svg"><path d="M11,0 C12.6568542,0 14,1.34314575 14,3 L14,6 L17,6 C18.6568542,6 20,7.34314575 20,9 L20,17 C20,18.6568542 18.6568542,20 17,20 L9,20 C7.34314575,20 6,18.6568542 6,17 L6,14 L3,14 C1.34314575,14 0,12.6568542 0,11 L0,3 C0,1.34314575 1.34314575,0 3,0 L11,0 Z M17,8 L9,8 C8.48716416,8 8.06449284,8.38604019 8.00672773,8.88337887 L8,9 L8,17 C8,17.5128358 8.38604019,17.9355072 8.88337887,17.9932723 L9,18 L17,18 C17.5128358,18 17.9355072,17.6139598 17.9932723,17.1166211 L18,17 L18,9 C18,8.48716416 17.6139598,8.06449284 17.1166211,8.00672773 L17,8 Z M10,15 C10.5522847,15 11,15.4477153 11,16 C11,16.5522847 10.5522847,17 10,17 C9.44771525,17 9,16.5522847 9,16 C9,15.4477153 9.44771525,15 10,15 Z M16,15 C16.5522847,15 17,15.4477153 17,16 C17,16.5522847 16.5522847,17 16,17 C15.4477153,17 15,16.5522847 15,16 C15,15.4477153 15.4477153,15 16,15 Z M13,12 C13.5522847,12 14,12.4477153 14,13 C14,13.5522847 13.5522847,14 13,14 C12.4477153,14 12,13.5522847 12,13 C12,12.4477153 12.4477153,12 13,12 Z M11.1166211,2.00672773 L11,2 L3,2 C2.48716416,2 2.06449284,2.38604019 2.00672773,2.88337887 L2,3 L2,11 C2,11.5128358 2.38604019,11.9355072 2.88337887,11.9932723 L3,12 L6,12 L6,9 C6,7.34314575 7.34314575,6 9,6 L12,6 L12,3 C12,2.48716416 11.6139598,2.06449284 11.1166211,2.00672773 Z M10,9 C10.5522847,9 11,9.44771525 11,10 C11,10.5522847 10.5522847,11 10,11 C9.44771525,11 9,10.5522847 9,10 C9,9.44771525 9.44771525,9 10,9 Z M16,9 C16.5522847,9 17,9.44771525 17,10 C17,10.5522847 16.5522847,11 16,11 C15.4477153,11 15,10.5522847 15,10 C15,9.44771525 15.4477153,9 16,9 Z M4.51268827,8.9930011 C5.06497302,8.9930011 5.51268827,9.44071635 5.51268827,9.9930011 C5.51268827,10.5452858 5.06497302,10.9930011 4.51268827,10.9930011 C3.96040353,10.9930011 3.51268827,10.5452858 3.51268827,9.9930011 C3.51268827,9.44071635 3.96040353,8.9930011 4.51268827,8.9930011 Z M4.51268827,5.9930011 C5.06497302,5.9930011 5.51268827,6.44071635 5.51268827,6.9930011 C5.51268827,7.54528585 5.06497302,7.9930011 4.51268827,7.9930011 C3.96040353,7.9930011 3.51268827,7.54528585 3.51268827,6.9930011 C3.51268827,6.44071635 3.96040353,5.9930011 4.51268827,5.9930011 Z M4.51268827,2.9930011 C5.06497302,2.9930011 5.51268827,3.44071635 5.51268827,3.9930011 C5.51268827,4.54528585 5.06497302,4.9930011 4.51268827,4.9930011 C3.96040353,4.9930011 3.51268827,4.54528585 3.51268827,3.9930011 C3.51268827,3.44071635 3.96040353,2.9930011 4.51268827,2.9930011 Z M9.51268827,2.9930011 C10.064973,2.9930011 10.5126883,3.44071635 10.5126883,3.9930011 C10.5126883,4.54528585 10.064973,4.9930011 9.51268827,4.9930011 C8.96040353,4.9930011 8.51268827,4.54528585 8.51268827,3.9930011 C8.51268827,3.44071635 8.96040353,2.9930011 9.51268827,2.9930011 Z"/></svg>

<svg width="20" height="20" xmlns="http://www.w3.org/2000/svg" fill="currentColor"><path d="M11 0a3 3 0 0 1 3 3v3h3a3 3 0 0 1 3 3v8a3 3 0 0 1-3 3H9a3 3 0 0 1-3-3v-3H3a3 3 0 0 1-3-3V3a3 3 0 0 1 3-3h8Zm6 8H9a1 1 0 0 0-.993.883L8 9v8a1 1 0 0 0 .883.993L9 18h8a1 1 0 0 0 .993-.883L18 17V9a1 1 0 0 0-.883-.993L17 8Zm-7 7a1 1 0 1 1 0 2 1 1 0 0 1 0-2Zm6 0a1 1 0 1 1 0 2 1 1 0 0 1 0-2Zm-3-3a1 1 0 1 1 0 2 1 1 0 0 1 0-2Zm-1.883-9.993L11 2H3a1 1 0 0 0-.993.883L2 3v8a1 1 0 0 0 .883.993L3 12h3V9a3 3 0 0 1 3-3h3V3a1 1 0 0 0-.883-.993ZM10 9a1 1 0 1 1 0 2 1 1 0 0 1 0-2Zm6 0a1 1 0 1 1 0 2 1 1 0 0 1 0-2ZM4.513 8.993a1 1 0 1 1 0 2 1 1 0 0 1 0-2Zm0-3a1 1 0 1 1 0 2 1 1 0 0 1 0-2Zm0-3a1 1 0 1 1 0 2 1 1 0 0 1 0-2Zm5 0a1 1 0 1 1 0 2 1 1 0 0 1 0-2Z"/></svg>
